X: 2455
T: Ballroom Favourite, The
R: barndance
M: 4/4
K: Dmajor
|:(3EFG|A2 f2 A>^GA>_B|B2 g2 B2 d>B|c2 (3Bcd e>d (3dcd|(3efe d>B A>G (3EFG|
A2 f2 A>^GA>_B|B2 g2 B4|c>^Bc>d e2 c>d|1 e>d (3cde d2:|2 (3efe d>c d2-||
|:d>f|a2 b>a f2 d2|c>de>f g2 e>f|g2 g>e c>AA>c|d2 (3efg (3aba f>g|
(3aba b>a f>Ad>A|c>de>f (3gag (3def|g2 (3gfe c2 (3Bcd|1 e2 d2 d2-:|2 (3efe d>c d2||

